tools/download-figma-icons/icons/outlined-large/iban.svg

<svg width="64" height="64" viewBox="0 0 64 64" fill="none" xmlns="http://www.w3.org/2000/svg">
<path fill-rule="evenodd" clip-rule="evenodd" d="M44.6077 27.276H36.8952V51.8218H44.6077V27.276ZM17.7737 27.276H26.2455V51.8218H17.7737V27.276ZM7.12407 27.276H4.02706C2.35868 27.276 1 25.9174 1 24.249V17.5255C1 16.3966 1.6194 15.3676 2.61843 14.8481L30.1617 0.352158C31.0409 -0.117386 32.0998 -0.117386 32.979 0.352158L60.5223 14.8481C61.5213 15.3776 62.1407 16.3966 62.1407 17.5255V24.249C62.1407 25.9174 60.782 27.276 59.1136 27.276H56.0167V51.8218H59.1036C60.772 51.8218 62.1307 53.1805 62.1307 54.8489V60.9729C62.1307 62.6413 60.772 64 59.1036 64H4.02706C2.35868 64 1 62.6413 1 60.9729V54.8489C1 53.1805 2.35868 51.8218 4.02706 51.8218H7.12407V27.276ZM14.7667 51.8218H10.1112V27.2763H14.7667V51.8218ZM29.2426 51.8218H33.8981V27.2763H29.2426V51.8218ZM53.0196 51.8218H47.6048V27.2763H53.0196V51.8218ZM31.5903 2.99959L3.99709 17.5255V24.249L59.1136 24.279L59.1436 17.5255L31.5903 2.99959ZM4.02706 54.8189L3.99709 54.8489V60.9729L59.1136 61.0029L59.1436 54.8489L4.02706 54.8189Z" fill="black"/>
</svg>

<svg xmlns="http://www.w3.org/2000/svg" width="64" height="64" fill="none" viewBox="0 0 64 64"><path fill="currentColor" fill-rule="evenodd" d="M44.608 27.276h-7.713v24.546h7.713zm-26.834 0h8.471v24.546h-8.471zm-10.65 0H4.027A3.03 3.03 0 0 1 1 24.249v-6.723c0-1.13.62-2.158 1.618-2.678L30.162.352a2.99 2.99 0 0 1 2.817 0l27.543 14.496a3.02 3.02 0 0 1 1.619 2.678v6.723a3.03 3.03 0 0 1-3.027 3.027h-3.097v24.546h3.087a3.03 3.03 0 0 1 3.027 3.027v6.124A3.03 3.03 0 0 1 59.104 64H4.027A3.03 3.03 0 0 1 1 60.973v-6.124a3.03 3.03 0 0 1 3.027-3.027h3.097zm7.643 24.546H10.11V27.276h4.656zm14.476 0h4.655V27.276h-4.655zm23.777 0h-5.415V27.276h5.415zM31.59 3 3.997 17.526v6.723l55.117.03.03-6.753zM4.027 54.819l-.03.03v6.124l55.117.03.03-6.154z" clip-rule="evenodd"/></svg>
